X:1
T:Lady Menzies of Castle Menzies
T:Lady Menzies of Castle Menzies
T:William Marshall
C:William Marshall
%%score { 1 ( 2 3 ) }
L:1/8
M:6/8
K:C
V:1 treble 
V:2 bass 
V:3 bass 
V:1
 G |: c3{dcBc} edc | BAG{^c} d3 | c3 edc |{eg} fef agf | e2 c{d} cBc | ABc{^c} d3 | GAB cde | %8
 fed gfe :: f2 A agf |{f} e>dc{^f} g3 | E2 g{f} e>dc | a2 [Ff] [Aa][Gg][Ff] | %13
 (G,C)!wedge!E (Gc)!wedge!e | FAd f2 a | gfe fdB | GAB cde :| %17
V:2
 z |: cgc' cgc' | dgb dgb | cgc' cgc' | fac' fac' | cgc' cgc' | fac' fgb | fgb egc' | dgb cgc' :: %9
 f[ac'][ac'] f[ac'][ac'] | c[gc'][gc'] c[gc'][gc'] | c[gc'][gc'] c[gc'][gc'] | %12
 f[ac'][ac'] f[ac'][ac'] | c[eg][eg] e[gc'][gc'] | f[bd'][bd'] f[bd'][bd'] | %15
 g[c'e'][c'e'] g[d'f'][d'f'] | g[d'f'][d'f'] [c'e'g']2 [c'e'g'] :| %17
V:3
 x |: C,3 C,3 | D,3 D,3 | C,3 C,3 | F,3 F,3 | C,3 C,3 | F,3 F,3 | x6 | x6 :: F,3 F,3 | C,3 C,3 | %11
 C,3 C,3 | F,3 F,3 | C,3 E,3 | x6 | G,3 G,3 | x6 :| %17

